X: 1
T: Menstrie Burn
C: Andrew Rankine 1951
R: reel
Z: 2009 John Chambers <jc:trillian.mit.edu>
S: printed MS of unknown origin
M: C|
L: 1/8
K: D
A2 | "D"D2FA d2cd | "E7"edcB "A7"A2de | "D"f2ef "Em"gfed | "A7"cdec AGFE || "D"D2FA d2cd |
| "E7"edcB "A7"A2de | "D"f2ef "A7"gecA | "D"d2d2 d2 :: e2 | "D"f2df a2ba | "Em"gfed "A7"e2c2 |
| "G"d2Bd "E7"e2ed | "A7"cBA^G A=GFE || "D"D2FA d2cd | "E7"edcB "A7"A2de | "D"f2ef "A7"gecA | "D"d2d2 d2 :|
